X:6
T:The Dithering Piper
M:4/4
L:1/8
R:Reel
C:Gris Sanderson
Q:450
N:This tune was written in the scordatura tuning A,DAd and 
N:could be played with a bit of a swing. I wrote it for my uillean 
N:piper friend who can never make up his mind about anything.
K:Ador
A,2CA, B,A,B,D|DEGD EGDB,|A,2CA, B,A,B,D|DEGA- AGED|
A,2CA, B,A,B,D|DEGD- DDEG|A2GE DEGE|GAGD EGDB,
||A,EAG- GEDB,|A,EAG- GEGA|A,EAG- GEGA|BAGB AGED||
A,EAG- GEDB,|A,EAG- GEGA|A,EAG- GEGA|B2cB AGEG|
A2cA BABd-|degd egdB|A2cA BABd-|dega- aged|A2cA BABd-|
degd edeg|a2ge dcAG|GABA GEDB,||
Aeag- gedB|Aeag- gega|Aeag- gega|bagb aged|
Aeag- gedB|Aeag- gega|Aeag- gega|gecB AGEG||
